X:1
T:Variations 8
L:1/8
M:4/4
V:1
V:2 clef=bass
K:C
[V:1] ae z g fAce | dfed BAGF | EGBd gfed | ^cEG=c c2 _B2 :|
[V:2] [D,F,C]8 | [G,,F,B,]8 | [C,E,B,]8 | [A,,G,^C]8 :|